X:293
T: DA UNTEN IST FRIEDEN IM DUNKELN HAUS
N: B0771
O: Europa, Mitteleuropa, Deutschland
R: Trost -, Tageszeiten - Lied, Abend, religioes
M: 4/4
L: 1/4
K: F
A | A2AA | B2A
A | G2F2 | A2G
G | A2AA | cBA
F | D2E2 | F2z
c | c2^cc | d2f
d | A2^c2 | d3
c | c2=BA | G2_A
F | A2G2 | F3

